!!!OTL: 1967. Vom Leiden Christi, die geistliche Farb genannt.
!!!ODT: 1640
!!!ARE: Europa, Mitteleuropa, Deutschland, Bayern, Muenchen
!!!SCT: E1967
!!!TXL: @@DE
!!!YEM: Copyright 1995, estate of Helmut Schaffrath.
**kern	**text
*ICvox	*
*M3/4	*
*k[b-]	*
*F:	*
!LO:TX:a:t=Fl. Bl. München 1637 (1640).	!
{4cc	Jn
=1	=1
2cc	Schwarʒ
4dd	will
=2	=2
2b-	ich
4cc	mich
=3	=3
(<4.a	klei-
8b-/	.
4cc)	.
=4	=4
2g}	-den,
{4f	Herr
=5	=5
(4.f	Je-
8g)	.
4a	-ſu,
=6	=6
4a	dir
2g	ʒu
=7	=7
2.f	Ehr.
=8	=8
2r}	.
{4cc	Dein
=9	=9
2cc	bit-
4dd	-ter
=10	=10
2b-	Marter
4cc	und
=11	=11
(<4.a	Lei-
8b-/	.
4cc)	.
=12	=12
2g}	-den
{4f	mein
=13	=13
(4.f	Herʒ
8g)	.
4a	be-
=14	=14
4a	-trü-
2g	-bet
=15	=15
2.f	ſehr.
=16	=16
2r}	.
{4a	Von
=17	=17
2b-	we-
4b-	-gen
=18	=18
(4.cc	un-
8b-)	-ſe-
4a	-rer
=19	=19
(4.g	Sün-
8a	.
4b-/)	.
=20	=20
2g}	-den
{4b-	leidſt
=21	=21
(4.cc	du
8b-)	.
4a	ſehr
=22	=22
(4.a	gro-
8g)	.
4f	-ßen
=23	=23
2.g	Schmerʒ
=24	=24
2r}	.
{4cc	wer
=25	=25
2cc	das
4dd	nicht
=26	=26
2b-	thut
4cc	em-
=27	=27
(4.a	-pfin-
8b-	.
4cc)	.
=28	=28
2g}	-den,
{4f	der
=29	=29
(4.f	hat
8g)	.
4a	ein
=30	=30
4a	ſtei-
2g	-nes
=31	=31
2f;}	Herʒ.
==	==
!!!AGN: geistlich, Fest - Lied, Biblischer Stoff, Passion
!!!ONB: ESAC (Essen Associative Code) Database: ERK3
!!!AMT: simple triple
!!!AIN: vox
!!!EED: Helmut Schaffrath
!!!EEV: 1.0
!!!GTL: Geistliche Lieder. 1. Christliche Festlieder: b) Osterkreis (Passionszeit, Ostern, Himmelfahrt, Pfingsten).
!!!URL-scan: https://rosdok.uni-rostock.de/mcrviewer/recordIdentifier/rosdok_ppn745177999/iview2/phys_0677.iview2?x=72.06423016022586&y=1342.6075916271657&scale=0.7014306698522891&rotation=0&layout=singlePageLayout
!!!ENC: Anna Maria Matuszewska
!!!EEV: 2025/10/01
*-	*-
